X: 1
T:A Fig for a Kiss
M:9/8
L:1/8
R:Slip Jig
K:Emin
G2B E2B BAG|F2A D2A AGF|G2B E2B BAG|B/^c/dB AGF E2F|!
G2B E2B BAG|F2A D2A AGF|G2B E2B BAG|B/^c/dB AGF E3|]!
g2e g2e edB|f2d d^cd fed|g2e g2e edB|dBG GBd e2f|!
g2e g2e edB|f2d d^cd fed|gfe fed ecA|B/2^c/2dB AGF E2F|]!
